dist/svgs/unicons/solid/align-right.svg

<svg xmlns="http://www.w3.org/2000/svg" viewBox="0 0 24 24"><path d="M3 7h18c.6 0 1-.4 1-1s-.4-1-1-1H3c-.6 0-1 .4-1 1s.4 1 1 1zm18 2H7c-.6 0-1 .4-1 1s.4 1 1 1h14c.6 0 1-.4 1-1s-.4-1-1-1zm0 4H3c-.6 0-1 .4-1 1s.4 1 1 1h18c.6 0 1-.4 1-1s-.4-1-1-1zm0 4H7c-.6 0-1 .4-1 1s.4 1 1 1h14c.6 0 1-.4 1-1s-.4-1-1-1z"/></svg>

<svg xmlns="http://www.w3.org/2000/svg" enable-background="new 0 0 24 24" viewBox="0 0 24 24"><path d="M3,7h18c0.6,0,1-0.4,1-1s-0.4-1-1-1H3C2.4,5,2,5.4,2,6S2.4,7,3,7z M21,9H7c-0.6,0-1,0.4-1,1s0.4,1,1,1h14c0.6,0,1-0.4,1-1S21.6,9,21,9z M21,13H3c-0.6,0-1,0.4-1,1s0.4,1,1,1h18c0.6,0,1-0.4,1-1S21.6,13,21,13z M21,17H7c-0.6,0-1,0.4-1,1s0.4,1,1,1h14c0.6,0,1-0.4,1-1S21.6,17,21,17z"/></svg>
